dist/svgs/unicons/line/home.svg

<svg xmlns="http://www.w3.org/2000/svg" viewBox="0 0 24 24"><path d="M21.66 10.25l-9-8a1 1 0 00-1.32 0l-9 8a1 1 0 00-.27 1.11A1 1 0 003 12h1v9a1 1 0 001 1h14a1 1 0 001-1v-9h1a1 1 0 00.93-.64 1 1 0 00-.27-1.11zM13 20h-2v-3a1 1 0 012 0zm5 0h-3v-3a3 3 0 00-6 0v3H6v-8h12zM5.63 10L12 4.34 18.37 10z"/></svg>

<svg xmlns="http://www.w3.org/2000/svg" viewBox="0 0 24 24"><path d="M21.66,10.25l-9-8a1,1,0,0,0-1.32,0l-9,8a1,1,0,0,0-.27,1.11A1,1,0,0,0,3,12H4v9a1,1,0,0,0,1,1H19a1,1,0,0,0,1-1V12h1a1,1,0,0,0,.93-.64A1,1,0,0,0,21.66,10.25ZM13,20H11V17a1,1,0,0,1,2,0Zm5,0H15V17a3,3,0,0,0-6,0v3H6V12H18ZM5.63,10,12,4.34,18.37,10Z"/></svg>
